public/images/arrow.svg

<?xml version="1.0"?>
<svg xmlns="http://www.w3.org/2000/svg" viewBox="0 0 16 16">
    <path style="line-height:normal;text-indent:0;text-align:start;text-decoration-line:none;text-decoration-style:solid;text-decoration-color:#000;text-transform:none;block-progression:tb;isolation:auto;mix-blend-mode:normal" d="M 4.5 1.0605469 L 1.0214844 4.5390625 L 1.7285156 5.2460938 L 4 2.9746094 L 4 4.1132812 C 4 9.0145612 7.9854386 13 12.886719 13 L 14 13 L 14 12 L 12.886719 12 C 8.5259985 12 5 8.4740013 5 4.1132812 L 5 2.9746094 L 7.2714844 5.2460938 L 7.9785156 4.5390625 L 4.5 1.0605469 z M 4.5 2.4746094 L 4.5253906 2.5 L 4.4746094 2.5 L 4.5 2.4746094 z" font-weight="400" font-family="sans-serif" white-space="normal" overflow="visible"/>
</svg>

<svg xmlns="http://www.w3.org/2000/svg" viewBox="0 0 16 16">
  <path d="M4.5 1.0605L1.0215 4.5391l.707.707L4 2.9746v1.1387C4 9.0146 7.9854 13 12.8867 13H14v-1h-1.1133C8.526 12 5 8.474 5 4.1133V2.9746l2.2715 2.2715.707-.707L4.5 1.0605zm0 1.4141l.0254.0254h-.0508L4.5 2.4746z" font-family="sans-serif" font-weight="400" overflow="visible" style="line-height:normal;text-indent:0;text-align:start;text-decoration-line:none;text-decoration-style:solid;text-decoration-color:#000;text-transform:none;block-progression:tb;isolation:auto;mix-blend-mode:normal" white-space="normal"/>
</svg>
